X:52403
T:Moving Cloud
C:Trad
H:
B: 
O:Arranged by Kevin Fraser
Z:Kevin Fraser
Q:1/4=70
M:2/4
L:1/16
K:HP
R:Hornpipe
U: R = ///
U: r = //
U: V = !accent!
V:M gstem=up stem=down name="Melody" sname="Melody"
V:H gstem=up stem=down name="Harmony" sname="Harmony"
V:C gstem=up stem=down name="C-Harmony" sname=C-Harmony"
V:S gstem=up stem=down dyn=up stafflines=1 clef=perc middle=G name="Snare" sname="Snare" sname="Snare"
V:B gstem=up stem=down clef=none dyn=up name="Bass" sname="Bass"
V:T gstem=up stem=down clef=none dyn=up name="Tenor" sname="Tenor"
V:BB gstem=up stem=down name="Brass Bass" sname="ABCD-C" transpose=-1  octave=-1 clef=bass
V:BC gstem=up stem=down name="Brass Chord" sname="ABCD-D" transpose=-1
V:BD gstem=up stem=down name="Brass Chord 2" sname="ABCD-B" transpose=-1
V:P gstem=up stem=down name="Piano" octave=-1
I:MIDI=program 110
%%MIDI gracedivider 4
% %score {M (BS)}
%%MIDI program 109 #bagpipes
%%MIDI vol 100
%%landscape
[V:M]|: {g}A>d{g}f>d   {g}B>d{a}g>d  | {g}A>d{g}f>d {gef}e>d{g}B>d    | {gf}g3e          {g}f3d        | {gf}g2{a}f>d {gef}e>d{g}B>d |
[V:M]   {g}A>d{g}f>d   {g}B>d{a}g>d  | {g}A>d{g}f>d {gef}e>d{g}B>d    | {a}g>f{g}e>g     {fg}f>e{g}d>f | {gef}e>d{g}B>c {Gdc}d2{g}d>B :|
[V:M]|: {gAGAG}A2{g}f>A {g}e>A{g}d>B | {gAGAG}A2{g}f>A {g}e>A{g}d>A   | {gBeBG}B2{a}g>B  {g}f>B{g}e>A  | {gBeBG}B2{a}g>B {g}f>B{g}e>B  |
[V:M]   {gAGAG}A2{g}f>A {g}e>A{g}d>B | {gAGAG}A2{g}f>A {gef}e>d{g}B>d | {a}g>f{g}e>g     {fg}f>e{g}d>f | {gef}e>d{g}B>c {Gdc}d2{g}d>B :|
[V:M]|: {gdedG}d2{g}f>d {g}A>d{g}f>A | {gdedG}d2{g}f>d a>d{g}f>d      | {gBeBG}B2g>{a}B  {G}B>g{a}f>d  | {g}e>g{a}f>d {gef}e>d{g}B>A |
[V:M]   {gdedG}d2{g}f>d {g}A>d{g}f>A | {gdedG}d2{g}f>d a>d{g}f>d      | {a}g>f{g}e>g     {fg}f>e{g}d>f | {gef}e>d{g}B>c {Gdc}d2{g}d>B :|
[V:M]|: a>A{d}A>a      A>{d}Aa>A     | {g}A>af>d      {gef}e>d{g}B>d  | {gBeBG}B2g>{a}B  {G}B>g{a}f>d  | {g}e>g{a}f>d {gef}e>d{g}B>A |
[V:M]   a>A{d}A>a      A>{d}Aa>A     | {g}A>af>d      {gef}e>d{g}B>d  | {a}g>f{g}e>g     {fg}f>e{g}d>f | {gef}e>d{g}B>c {Gdc}d2{g}d>B :|

